X:1
T:Pensier doglioso
T:Giovanni Matteo Asola
T:Source : Madrigali a due voci---Venetia---G.Vincenti---1587. Editor : André Vierendeels (16/11/17). Notes : Original clef : C4 ( Fuga di un tempo, una quinta piu alto) Editorial accidentals above the staff Original note values have been halved Sie also : Seconda parte "O felice chi t'ama" (Asola)  
T:Pensier doglioso
T:Prima parte
T:©
T:©
T:©
C:Giovanni Matteo Asola
Z:©
%%score [ 1 2 ]
L:1/8
Q:1/4=120
M:2/2
K:F
V:1 treble nm="Soprano" snm="S"
V:2 treble-8 nm="Tenor" snm="T"
V:1
 z8 | D4 E2 E2 | F2 D2 G3 G | E2 F2 D4 | E4 z2 A2 | A2 G2 A2 E2 | F4 E4 | z2 E2 G2 G2 | %8
w: |Pen- sier do-|glio- so che mi|strug- gi'l co-|re, re-|star per te non|vo- glio,|anz' a- ma-|
 F2 E2 D2 D2 | E2 G2 F4 | E2 D2 A2 A2 | G2 F2 EFGE | FG A4 G2 | A3 G F4 | E4 z2 A2 | A2 G2 F2 E2 | %16
w: ro'l mio Dio piu|che non so-|glio, non vuo ch'al-|tro mi fi- * * *|||a, ogn'|as- pra do- glia|
 F4 E4 | z2 A2 A2 G2 | AB c2 B B2 B | A2 G2 z2 D2 | E2 G2 FDFF | EE D2 A2 z A | GE F2 E E2 E | %23
w: mi- a,|ch'un spron che|piu mi sping' a tut- te|l'ho- re, den-|tra'l bel fo- co del di-|vi- no'a- mo- re, den-|tr'al bel fo- co del di-|
 FG A3 G/F/ G2 | A2 z E GG F2 | E E2 E FG A2 | G2 z G FF E>F | G2 D2 E3 E | D>E F2 D2 E2 | %29
w: vin' a- mo- * * *|re, den- tr'al bel fo-|co del di- vin' a- mo-|re, den- tr'al bel fo- *|* co del di-|vin' a- mo- re, den-|
 F2 E2 F2 G2 | A2 G2 F4 | E2 G4 F2 | G8 |] %33
w: tr'al bel fo- co|del di- vin'|a- mo- *|re.|
V:2
 G4 A2 A2 | B2 G2 c3 c | A2 B2 G4 | A4 z2 d2 | d2 c2 d2 A2 | B4 A4 | z2 A2 c2 c2 | B2 A2 G2 G2 | %8
w: Pen- sier do-|glio- so che mi|strug- gi'l co-|re, re-|star per te non|vo- glio,|anz' a- ma-|ro'l mio Dio piu|
 A2 c2 B4 | A2 G2 d2 d2 | c2 B2 ABcA | Bc d4 c2 | d3 c B4 | A4 z2 d2 | d2 c2 B2 A2 | B4 A4 | %16
w: che non so-|glio, non vuo- ch'al-|tro mi fi- * * *|||a, ogn'|as- pra do- glia|mi- a|
 z2 d2 d2 c2 | de f2 e e2 e | d2 c2 z2 G2 | A2 c2 BGBB | AA G2 d2 z d | cA B2 A A2 A | %22
w: ch'un spron che|piu mi sping' a tut- te|l'ho- re, den-|tr'al bel fo- co del di-|vin' a- mo- re, den-|tr'al bel fo- co del di-|
 Bc d3 c/B/ c2 | d2 z A cc B2 | A A2 A Bc d2 | c2 z c BB A>B | c2 G2 A3 A | G>A B2 G2 A2 | %28
w: vin' a- mo- * * *|re, den- tr'al bel fo-|co del di- vin' a- mo-|re, den- tr'al bel fo- *|* co del di-|vin' a- mo- re, den-|
"^#" B2 A2 B2 c2 | d2 c2 B4 | A2 c4 B2 | c3 B A4 | G8 |] %33
w: tr'al bel fo- co|del di- vin'|a- mo- *||re.|

